X:1
T:Title
L:1/8
Q:1/4=140
M:12/8
K:Ab
V:1 treble nm="Grand Piano"
V:1
 A3 A3 A2 A AGF | G12 | B3 B3 B3 BAG | A12 | A3 A3 A2 A AGF | G12 | G3 G3 A3 B3 | c12 | %8
w: ????~????~???? * * * * * *||||||||
 c3 c3 c3 dc=A | B3- B>cB/=A/ B6 | B3 B2 B B2 B c2 d | c12 | c3 c3 c3 dc=A | B3- B>cB/=A/ B6 | %14
w: ||||||
 B3 B2 B B2 B A2 G | A6 =A6 | B3 B2 c d2 d c2 _c | c12 | d3 c3 B3 A3 | G12 | G3 G2 A B2 B c2 d | %21
w: |||||||
 c12 | G3 B3 A3 G3 | G12 | =E3 C3 A3 G3 | F12 |] %26
w: |||||

